X:1
T:Title
%%score { 1 | ( 2 3 ) }
L:1/8
M:3/4
K:G
V:1 treble nm="Grand Piano"
V:2 treble 
V:3 treble 
V:1
 z2 z2[Q:1/4=100] DG | B2 G2 EG | E2 D2 GB | d2 B2 AG |[M:2/4] A4 |[M:1/4] DG |[M:3/4] B2 G2 EG | %7
 E2 D2 GB | d3 [Ec] [DB][CDA] |[M:2/4] [B,DG]4 |[M:1/4] DG |[M:3/4] B2 G2 EG | E2 D2 GB | %13
 d2 B2 AG |[M:2/4] A4 |[M:1/4] DG |[M:3/4] B2 G2 EG | E2 D2 GB | d3 [Ec] [DB][CDA] | %19
[M:2/4] [B,DG]4 |] %20
V:2
 z2 z2 [G,B,][G,B,D] | [G,DG]2[K:bass] [G,B,D]2 [C,G,C][E,G,C] | C2 z2[K:treble] z2 | %3
 [G,B,G]2[K:bass] [G,D]2 [F,A,D][E,A,^C] |[M:2/4] [D,F,D]4 |[M:1/4] [G,B,][K:treble][G,B,D] | %6
[M:3/4] [G,DG]2[K:bass] [G,B,D]2 [C,G,C][E,G,C] | C2 z2[K:treble] z2 | %8
 [G,B,G]3[K:bass] [C,G,] [D,G,]D, |[M:2/4] G,,4 |[M:1/4] [G,B,][K:treble][G,B,D] | %11
[M:3/4] [G,DG]2[K:bass] [G,B,D]2 [C,G,C][E,G,C] | C2 z2[K:treble] z2 | %13
 [G,B,G]2[K:bass] [G,D]2 [F,A,D][E,A,^C] |[M:2/4] [D,F,D]4 |[M:1/4] [G,B,][K:treble][G,B,D] | %16
[M:3/4] [G,DG]2[K:bass] [G,B,D]2 [C,G,C][E,G,C] | C2 z2[K:treble] z2 | %18
 [G,B,G]3[K:bass] [C,G,] [D,G,]D, |[M:2/4] G,,4 |] %20
V:3
 x6 | x2[K:bass] x4 | G,2- [G,B,]2[K:treble] [G,B,D][G,DG] | x2[K:bass] x4 |[M:2/4] x4 | %5
[M:1/4] x[K:treble] x |[M:3/4] x2[K:bass] x4 | G,2- [G,B,]2[K:treble] [G,B,D][G,DG] | %8
 x3[K:bass] x3 |[M:2/4] x4 |[M:1/4] x[K:treble] x |[M:3/4] x2[K:bass] x4 | %12
 G,2- [G,B,]2[K:treble] [G,B,D][G,DG] | x2[K:bass] x4 |[M:2/4] x4 |[M:1/4] x[K:treble] x | %16
[M:3/4] x2[K:bass] x4 | G,2- [G,B,]2[K:treble] [G,B,D][G,DG] | x3[K:bass] x3 |[M:2/4] x4 |] %20

